img/icon_geo.svg

<svg width="41" height="42" viewBox="0 0 41 42" fill="none" xmlns="http://www.w3.org/2000/svg">
<path fill-rule="evenodd" clip-rule="evenodd" d="M0 21.1274C0 32.4411 9.17816 41.6127 20.5 41.6127C31.8218 41.6127 41 32.4411 41 21.1274C41 9.81367 31.8218 0.64209 20.5 0.64209C9.17816 0.64209 0 9.81367 0 21.1274ZM20.5236 33.4186C20.5236 33.4186 15.0204 25.1942 13.0724 20.6218C12.5769 19.5561 12.3 18.3662 12.3 17.1111C12.3 12.541 15.9713 8.83621 20.5 8.83621C25.0287 8.83621 28.7 12.541 28.7 17.1111C28.7 18.1168 28.5222 19.0806 28.1966 19.9722H28.2054C26.9 23.4412 20.5236 33.4186 20.5236 33.4186Z" fill="white"/>
<path d="M20.5 21.8103C23.1418 21.8103 25.2833 19.6703 25.2833 17.0304C25.2833 14.3905 23.1418 12.2505 20.5 12.2505C17.8582 12.2505 15.7167 14.3905 15.7167 17.0304C15.7167 19.6703 17.8582 21.8103 20.5 21.8103Z" fill="white"/>
</svg>

<svg width="41" height="42" fill="none" xmlns="http://www.w3.org/2000/svg"><path fill-rule="evenodd" clip-rule="evenodd" d="M0 21.127c0 11.314 9.178 20.486 20.5 20.486S41 32.44 41 21.127 31.822.642 20.5.642 0 9.814 0 21.127zM20.524 33.42s-5.504-8.225-7.452-12.797a8.306 8.306 0 01-.772-3.51c0-4.571 3.671-8.276 8.2-8.276s8.2 3.705 8.2 8.275c0 1.006-.178 1.97-.503 2.861h.008c-1.305 3.47-7.681 13.447-7.681 13.447z" fill="#fff"/><path d="M20.5 21.81a4.782 4.782 0 004.783-4.78c0-2.64-2.141-4.78-4.783-4.78a4.782 4.782 0 00-4.783 4.78c0 2.64 2.141 4.78 4.783 4.78z" fill="#fff"/></svg>
